X: 1
T: Westlands Reinlendar
Z: 1997 by John Chambers <jc@trillian.mit.edu>
M: C|
L: 1/8
K: D
|::: "D"f4 ~f2 ef | "A7"gf e""e | e>d cd e2 ef |1,3 "D"d2 AG FE D2 :|2,4 "D"d2 d2 "fine"d4 :|
K: A
|:::"A"e>c ea "D"gf ef | "A"e>d cd e2 e2 |1,3 "E7"e2 Bc d2 e2 | ef ~f2 "A"e>d c2 :|2,4 "E7"e2 Bc de fg | "A"a2 ag a4 :|
